X: 73
T: No_35_Tomorrow_I_Will_Get_Them.krn
N: Derived from No_35_Tomorrow_I_Will_Get_Them.krn
%%abc-version 2.0
%%abcx-abcm2ps-target-version 5.9.1 (29 Sep 2008)
%%abc-creator hum2abc beta
%%abcx-conversion-date 2019/03/15 08:35:44
%%humdrum-veritas 1470018148
%%humdrum-veritas-data 662126209
%%linebreak <none>
%%barnumbers 0
L: 1/8
M: 2/4
K: E clef=bass
[K:clef=bass][M:2/4]z2E,E, ]|:  
F,2G,G, | 
F,2F,F, | 
F, z F,B, | 
B,2B,G, | 
F,2E,E, | 
F,2E,/C,/B,,/ z/ | 
F,2G,F, | 
E,2C,B,, | 
B,,2B,,B,, | 
B,,4 | 
B,, z E,E, :|]  
B,,2z2 |]  



